X: 31359
T: Paddy O'Carroll
R: jig
M: 6/8
K: Gmajor
|:d/c/)|(BG).G (BG).G|(B>c).B (BA).G|(dB).d (gd).B|(A>BA) A2 (d/c/)|
(BG).G (BG).G|(B>c).B (BA).G|(dB).d (gd).B|(A>GA) G2:|
|:(g/a/)|(bg).g (af).f|(g>f).e .d.c.B.|(bg).d' (af)d'|(ge)^.c d'2 (d'=c')|
(bg).g (af).f|{ef}(g>f).e (dc).B|(dB).d (gd).B|(A>GA) .G2:|

